;FLAVOR:Marlin
;TIME:8518
;Filament used: 1.7404m
;Layer height: 0.1
;MINX:16.936
;MINY:17.387
;MINZ:0.3
;MAXX:83.064
;MAXY:82.613
;MAXZ:20
;Generated with Cura_SteamEngine 5.2.1
M104 S200
M105
M109 S200
M82 ;absolute extrusion mode
G28 ;Home
G1 Z15.0 F6000 ;Move the platform down 15mm
;Prime the extruder
G92 E0
G1 F200 E3
G92 E0
G92 E0
G92 E0
G1 F1500 E-6.5
;LAYER_COUNT:198
;LAYER:0
M107
G0 F3600 X19.927 Y20.596 Z0.3
;TYPE:SKIRT
G1 F1500 E0
G1 F1800 X20.588 Y19.973 E0.01709
G1 X21.425 Y19.339 E0.03684
G1 X22.078 Y18.895 E0.05169
G1 X22.885 Y18.458 E0.06895
G1 X23.876 Y18.055 E0.08908
G1 X24.622 Y17.795 E0.10394
G1 X25.496 Y17.587 E0.12084
G1 X26.535 Y17.452 E0.14055
G1 X27.538 Y17.387 E0.15945
G1 X72.461 Y17.388 E1.00448
G1 X73.464 Y17.453 E1.02339
G1 X74.189 Y17.547 E1.03714
G1 X74.966 Y17.688 E1.05199
G1 X75.833 Y17.938 E1.06897
G1 X76.802 Y18.332 E1.08864
G1 X77.518 Y18.666 E1.1035
G1 X78.298 Y19.132 E1.1206
G1 X79.14 Y19.767 E1.14043
G1 X79.746 Y20.274 E1.1553
G1 X80.378 Y20.922 E1.17232
G1 X81.028 Y21.751 E1.19214
G1 X81.483 Y22.396 E1.20699
G1 X81.939 Y23.204 E1.22444
G1 X82.355 Y24.191 E1.24459
G1 X82.624 Y24.933 E1.25943
G1 X82.85 Y25.825 E1.27674
G1 X82.994 Y26.895 E1.29705
G1 X83.064 Y27.936 E1.31668
G1 X83.063 Y72.06 E2.14667
G1 X82.994 Y73.097 E2.16622
G1 X82.898 Y73.813 E2.17981
G1 X82.753 Y74.589 E2.19466
G1 X82.491 Y75.482 E2.21217
G1 X82.076 Y76.467 E2.23227
G1 X81.732 Y77.178 E2.24713
G1 X81.254 Y77.957 E2.26432
G1 X80.59 Y78.807 E2.28461
G1 X80.073 Y79.404 E2.29947
G1 X79.413 Y80.026 E2.31653
G1 X78.582 Y80.657 E2.33615
G1 X77.93 Y81.102 E2.351
G1 X77.126 Y81.539 E2.36822
G1 X76.124 Y81.946 E2.38856
G1 X75.378 Y82.206 E2.40342
G1 X74.494 Y82.417 E2.42052
G1 X73.454 Y82.55 E2.44024
G1 X72.462 Y82.613 E2.45894
G1 X27.539 Y82.612 E3.30396
G1 X26.547 Y82.549 E3.32266
G1 X25.822 Y82.456 E3.33641
G1 X25.044 Y82.316 E3.35128
G1 X24.177 Y82.067 E3.36825
G1 X23.198 Y81.669 E3.38813
G1 X22.482 Y81.335 E3.40299
G1 X21.697 Y80.866 E3.42019
G1 X20.853 Y80.228 E3.44009
G1 X20.248 Y79.72 E3.45495
G1 X19.618 Y79.073 E3.47194
G1 X18.972 Y78.249 E3.49163
G1 X18.517 Y77.604 E3.50648
G1 X18.063 Y76.8 E3.52385
G1 X17.644 Y75.804 E3.54418
G1 X17.374 Y75.061 E3.55905
G1 X17.15 Y74.172 E3.57629
G1 X17.006 Y73.106 E3.59652
G1 X16.936 Y72.064 E3.61617
G1 X16.937 Y27.94 E4.44617
G1 X17.006 Y26.903 E4.46572
G1 X17.102 Y26.187 E4.47931
G1 X17.247 Y25.411 E4.49415
G1 X17.509 Y24.518 E4.51166
G1 X17.924 Y23.533 E4.53177
G1 X18.268 Y22.822 E4.54662
G1 X18.746 Y22.043 E4.56382
G1 X19.41 Y21.193 E4.58411
G1 X19.927 Y20.596 E4.59896
G0 F3600 X20.229 Y20.858
G1 F1800 X21.089 Y20.095 E4.62059
G1 X21.666 Y19.658 E4.6342
G1 X22.303 Y19.226 E4.64868
G1 X23.076 Y18.812 E4.66517
G1 X24.026 Y18.426 E4.68446
G1 X24.753 Y18.173 E4.69894
G1 X25.862 Y17.942 E4.72025
G1 X26.587 Y17.848 E4.734
G1 X27.538 Y17.787 E4.75193
G1 X72.461 Y17.788 E5.59696
G1 X73.412 Y17.849 E5.61488
G1 X74.137 Y17.943 E5.62863
G1 X74.894 Y18.082 E5.64311
G1 X75.973 Y18.427 E5.66442
G1 X76.652 Y18.703 E5.67821
G1 X77.348 Y19.029 E5.69266
G1 X78.092 Y19.477 E5.709
G1 X78.899 Y20.086 E5.72802
G1 X79.488 Y20.581 E5.74249
G1 X80.266 Y21.428 E5.76412
G1 X80.713 Y21.998 E5.77775
G1 X81.156 Y22.627 E5.79222
G1 X81.585 Y23.397 E5.8088
G1 X81.986 Y24.347 E5.8282
G1 X82.248 Y25.07 E5.84266
G1 X82.461 Y25.928 E5.85929
G1 X82.598 Y26.949 E5.87867
G1 X82.664 Y27.936 E5.89728
G1 X82.663 Y72.06 E6.72728
G1 X82.597 Y73.043 E6.74581
G1 X82.501 Y73.759 E6.7594
G1 X82.36 Y74.515 E6.77386
G1 X82.108 Y75.361 E6.79047
G1 X81.707 Y76.311 E6.80987
G1 X81.372 Y77.003 E6.82433
G1 X80.908 Y77.751 E6.84088
G1 X80.275 Y78.561 E6.86022
G1 X79.771 Y79.142 E6.87469
G1 X78.917 Y79.9 E6.89617
G1 X78.34 Y80.338 E6.9098
G1 X77.704 Y80.771 E6.92427
G1 X76.936 Y81.184 E6.94067
G1 X75.974 Y81.575 E6.9602
G1 X75.247 Y81.828 E6.97468
G1 X74.129 Y82.06 E6.99616
G1 X73.404 Y82.153 E7.00991
G1 X72.462 Y82.213 E7.02767
G1 X27.539 Y82.212 E7.87269
G1 X26.597 Y82.152 E7.89045
G1 X25.872 Y82.059 E7.9042
G1 X25.116 Y81.921 E7.91866
G1 X24.027 Y81.574 E7.94015
G1 X23.348 Y81.298 E7.95394
G1 X22.652 Y80.972 E7.9684
G1 X21.904 Y80.521 E7.98483
G1 X21.094 Y79.909 E8.00393
G1 X20.506 Y79.414 E8.01838
G1 X19.734 Y78.572 E8.03987
G1 X19.287 Y78.002 E8.0535
G1 X18.844 Y77.373 E8.06797
G1 X18.411 Y76.596 E8.0847
G1 X18.012 Y75.649 E8.10403
G1 X17.751 Y74.925 E8.11851
G1 X17.539 Y74.071 E8.13506
G1 X17.402 Y73.053 E8.15438
G1 X17.336 Y72.064 E8.17303
G1 X17.337 Y27.94 E9.00302
G1 X17.403 Y26.957 E9.02156
G1 X17.499 Y26.241 E9.03515
G1 X17.64 Y25.485 E9.04961
G1 X17.892 Y24.639 E9.06622
G1 X18.293 Y23.689 E9.08561
G1 X18.628 Y22.997 E9.10007
G1 X19.092 Y22.249 E9.11663
G1 X19.725 Y21.439 E9.13597
G1 X20.229 Y20.858 E9.15044
G0 F3600 X20.532 Y21.121
G1 F1800 X21.331 Y20.414 E9.17051
G1 X21.908 Y19.977 E9.18412
G1 X22.527 Y19.558 E9.19818
G1 X23.498 Y19.072 E9.21861
G1 X24.177 Y18.796 E9.23239
G1 X24.884 Y18.552 E9.24646
G1 X25.913 Y18.339 E9.26623
G1 X26.638 Y18.245 E9.27998
G1 X27.538 Y18.187 E9.29695
G1 X72.461 Y18.188 E10.14197
G1 X73.361 Y18.246 E10.15894
G1 X74.086 Y18.34 E10.17269
G1 X74.822 Y18.476 E10.18677
G1 X75.822 Y18.797 E10.20652
G1 X76.501 Y19.073 E10.22031
G1 X77.178 Y19.392 E10.23439
G1 X78.08 Y19.97 E10.25454
G1 X78.658 Y20.406 E10.26816
G1 X79.231 Y20.887 E10.28223
G1 X79.951 Y21.674 E10.3023
G1 X80.398 Y22.244 E10.31592
G1 X80.828 Y22.857 E10.33001
G1 X81.34 Y23.843 E10.35091
G1 X81.618 Y24.502 E10.36436
G1 X81.871 Y25.206 E10.37843
G1 X82.105 Y26.289 E10.39927
G1 X82.201 Y27.002 E10.41281
G1 X82.264 Y27.936 E10.43042
G1 X82.263 Y72.06 E11.26041
G1 X82.201 Y72.99 E11.27795
G1 X82.105 Y73.706 E11.29153
G1 X81.966 Y74.441 E11.3056
G1 X81.617 Y75.497 E11.32653
G1 X81.339 Y76.156 E11.33998
G1 X81.011 Y76.828 E11.35405
G1 X80.406 Y77.744 E11.3747
G1 X79.96 Y78.315 E11.38832
G1 X79.468 Y78.879 E11.4024
G1 X78.675 Y79.582 E11.42234
G1 X78.098 Y80.02 E11.43596
G1 X77.479 Y80.439 E11.45002
G1 X76.502 Y80.929 E11.47058
G1 X75.823 Y81.205 E11.48437
G1 X75.116 Y81.449 E11.49844
G1 X74.078 Y81.663 E11.51838
G1 X73.353 Y81.756 E11.53213
G1 X72.462 Y81.813 E11.54892
G1 X27.539 Y81.812 E12.39395
G1 X26.648 Y81.755 E12.41074
G1 X25.923 Y81.662 E12.42449
G1 X25.188 Y81.527 E12.43855
G1 X24.178 Y81.204 E12.45849
G1 X23.499 Y80.928 E12.47228
G1 X22.822 Y80.609 E12.48636
G1 X21.913 Y80.027 E12.50666
G1 X21.335 Y79.59 E12.52029
G1 X20.764 Y79.107 E12.53436
G1 X20.049 Y78.326 E12.55428
G1 X19.602 Y77.756 E12.5679
G1 X19.172 Y77.143 E12.58199
G1 X18.659 Y76.153 E12.60296
G1 X18.381 Y75.493 E12.61643
G1 X18.128 Y74.789 E12.63051
G1 X17.895 Y73.711 E12.65125
G1 X17.799 Y72.999 E12.66477
G1 X17.736 Y72.064 E12.68239
G1 X17.737 Y27.94 E13.51239
G1 X17.799 Y27.01 E13.52992
G1 X17.895 Y26.294 E13.54351
G1 X18.034 Y25.559 E13.55758
G1 X18.383 Y24.503 E13.5785
G1 X18.661 Y23.844 E13.59196
G1 X18.989 Y23.172 E13.60602
G1 X19.594 Y22.256 E13.62667
G1 X20.04 Y21.685 E13.6403
G1 X20.532 Y21.121 E13.65438
G0 F3600 X20.834 Y21.384
G1 F1800 X21.572 Y20.733 E13.67289
G1 X22.149 Y20.296 E13.68651
G1 X22.752 Y19.89 E13.70018
G1 X23.649 Y19.443 E13.71903
G1 X24.328 Y19.167 E13.73282
G1 X25.015 Y18.931 E13.74649
G1 X25.964 Y18.736 E13.76471
G1 X26.689 Y18.642 E13.77846
G1 X27.538 Y18.587 E13.79447
G1 X72.461 Y18.588 E14.63949
G1 X73.31 Y18.643 E14.6555
G1 X74.035 Y18.737 E14.66925
G1 X74.749 Y18.87 E14.68291
G1 X75.671 Y19.168 E14.70114
G1 X76.35 Y19.444 E14.71492
G1 X77.007 Y19.754 E14.72859
G1 X77.84 Y20.289 E14.74721
G1 X78.418 Y20.725 E14.76083
G1 X78.973 Y21.194 E14.7745
G1 X79.636 Y21.921 E14.79301
G1 X80.083 Y22.491 E14.80663
G1 X80.5 Y23.087 E14.82031
G1 X80.971 Y23.999 E14.83962
G1 X81.249 Y24.658 E14.85308
G1 X81.494 Y25.341 E14.86673
G1 X81.709 Y26.342 E14.88598
G1 X81.805 Y27.055 E14.89952
G1 X81.864 Y27.936 E14.91613
G1 X81.863 Y72.06 E15.74612
G1 X81.804 Y72.937 E15.76266
G1 X81.708 Y73.653 E15.77625
G1 X81.572 Y74.367 E15.78992
G1 X81.248 Y75.341 E15.80923
G1 X80.97 Y76 E15.82268
G1 X80.651 Y76.653 E15.83635
G1 X80.09 Y77.498 E15.85543
G1 X79.644 Y78.069 E15.86906
G1 X79.166 Y78.616 E15.88272
G1 X78.434 Y79.263 E15.9011
G1 X77.857 Y79.701 E15.91473
G1 X77.255 Y80.108 E15.9284
G1 X76.351 Y80.558 E15.94739
G1 X75.672 Y80.834 E15.96118
G1 X74.985 Y81.07 E15.97484
G1 X74.027 Y81.266 E15.99324
G1 X73.302 Y81.359 E16.00699
G1 X72.462 Y81.413 E16.02282
G1 X27.539 Y81.412 E16.86785
G1 X26.699 Y81.358 E16.88368
G1 X25.974 Y81.265 E16.89743
G1 X25.26 Y81.133 E16.91109
G1 X24.329 Y80.833 E16.92949
G1 X23.65 Y80.557 E16.94327
G1 X22.993 Y80.247 E16.95694
G1 X22.155 Y79.708 E16.97568
G1 X21.577 Y79.271 E16.98931
G1 X21.022 Y78.801 E17.00299
G1 X20.364 Y78.079 E17.02137
G1 X19.917 Y77.509 E17.03499
G1 X19.5 Y76.913 E17.04868
G1 X19.028 Y75.998 E17.06804
G1 X18.75 Y75.338 E17.08151
G1 X18.505 Y74.654 E17.09518
G1 X18.291 Y73.658 E17.11434
G1 X18.195 Y72.946 E17.12786
G1 X18.136 Y72.064 E17.14449
G1 X18.137 Y27.94 E17.97448
G1 X18.196 Y27.063 E17.99102
G1 X18.292 Y26.347 E18.00461
G1 X18.428 Y25.633 E18.01828
G1 X18.752 Y24.659 E18.03759
G1 X19.03 Y24 E18.05104
G1 X19.349 Y23.347 E18.06471
G1 X19.91 Y22.502 E18.08379
G1 X20.356 Y21.931 E18.09742
G1 X20.834 Y21.384 E18.11108
G0 F3600 X21.135 Y21.648
G1 F1800 X21.814 Y21.052 E18.12808
G1 X22.391 Y20.615 E18.14169
G1 X22.975 Y20.222 E18.15494
G1 X23.799 Y19.813 E18.17224
G1 X24.478 Y19.537 E18.18603
G1 X25.144 Y19.31 E18.19926
G1 X26.016 Y19.132 E18.216
G1 X26.741 Y19.038 E18.22976
G1 X27.538 Y18.987 E18.24478
G1 X72.461 Y18.988 E19.0898
G1 X73.258 Y19.039 E19.10483
G1 X73.983 Y19.133 E19.11858
G1 X74.675 Y19.263 E19.13182
G1 X75.521 Y19.538 E19.14856
G1 X76.2 Y19.814 E19.16234
G1 X76.836 Y20.116 E19.17559
G1 X77.599 Y20.608 E19.19267
G1 X78.177 Y21.044 E19.20628
G1 X78.714 Y21.499 E19.21952
G1 X79.322 Y22.168 E19.23653
G1 X79.769 Y22.738 E19.25016
G1 X80.171 Y23.316 E19.2634
G1 X80.603 Y24.154 E19.28113
G1 X80.881 Y24.813 E19.29459
G1 X81.117 Y25.476 E19.30783
G1 X81.313 Y26.396 E19.32552
G1 X81.409 Y27.109 E19.33905
G1 X81.464 Y27.936 E19.35464
G1 X81.463 Y72.06 E20.18464
G1 X81.408 Y72.884 E20.20017
G1 X81.312 Y73.6 E20.21376
G1 X81.179 Y74.291 E20.227
G1 X80.88 Y75.186 E20.24475
G1 X80.602 Y75.845 E20.2582
G1 X80.291 Y76.477 E20.27145
G1 X79.775 Y77.251 E20.28895
G1 X79.329 Y77.822 E20.30258
G1 X78.865 Y78.352 E20.31583
G1 X78.192 Y78.944 E20.33269
G1 X77.615 Y79.382 E20.34632
G1 X77.031 Y79.775 E20.35956
G1 X76.201 Y80.188 E20.377
G1 X75.522 Y80.464 E20.39079
G1 X74.856 Y80.691 E20.40402
G1 X73.976 Y80.87 E20.42091
G1 X73.251 Y80.963 E20.43466
G1 X72.462 Y81.013 E20.44953
G1 X27.539 Y81.012 E21.29456
G1 X26.75 Y80.962 E21.30943
G1 X26.025 Y80.869 E21.32318
G1 X25.333 Y80.74 E21.33642
G1 X24.479 Y80.463 E21.35331
G1 X23.8 Y80.187 E21.3671
G1 X23.164 Y79.885 E21.38034
G1 X22.396 Y79.389 E21.39754
G1 X21.818 Y78.952 E21.41117
G1 X21.281 Y78.496 E21.42442
G1 X20.678 Y77.832 E21.44129
G1 X20.231 Y77.262 E21.45492
G1 X19.829 Y76.684 E21.46816
G1 X19.396 Y75.843 E21.48596
G1 X19.118 Y75.183 E21.49943
G1 X18.882 Y74.519 E21.51268
G1 X18.688 Y73.604 E21.53028
G1 X18.592 Y72.892 E21.54379
G1 X18.536 Y72.064 E21.5594
G1 X18.537 Y27.94 E22.3894
G1 X18.592 Y27.116 E22.40493
G1 X18.688 Y26.4 E22.41852
G1 X18.821 Y25.709 E22.43176
G1 X19.12 Y24.814 E22.44951
G1 X19.398 Y24.155 E22.46296
G1 X19.709 Y23.523 E22.47621
G1 X20.225 Y22.749 E22.49371
G1 X20.671 Y22.178 E22.50734
G1 X21.135 Y21.648 E22.52059
G0 F3600 X21.436 Y21.913
G1 F1800 X22.055 Y21.37 E22.53608
G1 X22.632 Y20.933 E22.54969
G1 X23.198 Y20.555 E22.5625
G1 X23.95 Y20.184 E22.57827
G1 X24.629 Y19.908 E22.59206
G1 X25.274 Y19.689 E22.60487
G1 X26.067 Y19.529 E22.62009
G1 X26.792 Y19.435 E22.63384
G1 X27.538 Y19.387 E22.6479
G1 X72.461 Y19.388 E23.49293
G1 X73.207 Y19.436 E23.50699
G1 X73.932 Y19.53 E23.52074
G1 X74.601 Y19.657 E23.53355
G1 X75.37 Y19.909 E23.54877
G1 X76.049 Y20.185 E23.56256
G1 X76.664 Y20.478 E23.57537
G1 X77.358 Y20.928 E23.59093
G1 X77.936 Y21.364 E23.60455
G1 X78.454 Y21.805 E23.61735
G1 X79.007 Y22.415 E23.63284
G1 X79.454 Y22.985 E23.64646
G1 X79.842 Y23.544 E23.65926
G1 X80.234 Y24.31 E23.67545
G1 X80.512 Y24.969 E23.6889
G1 X80.739 Y25.61 E23.70169
G1 X80.916 Y26.449 E23.71782
G1 X81.012 Y27.162 E23.73136
G1 X81.064 Y27.936 E23.74595
G1 X81.063 Y72.06 E24.57594
G1 X81.012 Y72.831 E24.59048
G1 X80.916 Y73.547 E24.60407
G1 X80.786 Y74.215 E24.61687
G1 X80.511 Y75.03 E24.63305
G1 X80.233 Y75.689 E24.6465
G1 X79.932 Y76.3 E24.65932
G1 X79.46 Y77.005 E24.67527
G1 X79.014 Y77.576 E24.6889
G1 X78.564 Y78.087 E24.70171
G1 X77.95 Y78.626 E24.71708
G1 X77.373 Y79.064 E24.73071
G1 X76.807 Y79.443 E24.74352
G1 X76.05 Y79.817 E24.7594
G1 X75.371 Y80.093 E24.77319
G1 X74.726 Y80.312 E24.786
G1 X73.925 Y80.473 E24.80137
G1 X73.2 Y80.566 E24.81512
G1 X72.462 Y80.613 E24.82903
G1 X27.539 Y80.612 E25.67406
G1 X26.801 Y80.565 E25.68797
G1 X26.076 Y80.472 E25.70172
G1 X25.407 Y80.346 E25.71452
G1 X24.63 Y80.092 E25.7299
G1 X23.951 Y79.816 E25.74369
G1 X23.336 Y79.523 E25.7565
G1 X22.637 Y79.07 E25.77217
G1 X22.059 Y78.633 E25.7858
G1 X21.541 Y78.191 E25.79861
G1 X20.993 Y77.585 E25.81398
G1 X20.546 Y77.015 E25.8276
G1 X20.158 Y76.456 E25.8404
G1 X19.765 Y75.687 E25.85665
G1 X19.487 Y75.027 E25.87012
G1 X19.26 Y74.386 E25.88291
G1 X19.084 Y73.551 E25.89896
G1 X18.988 Y72.839 E25.91248
G1 X18.936 Y72.064 E25.92709
G1 X18.937 Y27.94 E26.75709
G1 X18.988 Y27.169 E26.77162
G1 X19.084 Y26.453 E26.78521
G1 X19.214 Y25.785 E26.79801
G1 X19.489 Y24.97 E26.81419
G1 X19.767 Y24.311 E26.82764
G1 X20.068 Y23.7 E26.84046
G1 X20.54 Y22.995 E26.85642
G1 X20.986 Y22.424 E26.87004
G1 X21.436 Y21.913 E26.88285
G0 F3600 X21.736 Y22.178
G1 F1800 X22.297 Y21.689 E26.89685
G1 X22.874 Y21.252 E26.91047
G1 X23.421 Y20.888 E26.92283
G1 X24.101 Y20.554 E26.93708
G1 X24.78 Y20.278 E26.95086
G1 X25.402 Y20.069 E26.96321
G1 X26.119 Y19.926 E26.97696
G1 X26.844 Y19.832 E26.99071
G1 X27.538 Y19.787 E27.00379
G1 X72.461 Y19.788 E27.84882
G1 X73.155 Y19.833 E27.8619
G1 X73.88 Y19.927 E27.87565
G1 X74.525 Y20.051 E27.88801
G1 X75.219 Y20.279 E27.90175
G1 X75.898 Y20.555 E27.91554
G1 X76.491 Y20.839 E27.92791
G1 X77.117 Y21.247 E27.94196
G1 X77.695 Y21.683 E27.95558
G1 X78.194 Y22.11 E27.96793
G1 X78.692 Y22.662 E27.98192
G1 X79.139 Y23.232 E27.99554
G1 X79.512 Y23.772 E28.00789
G1 X79.865 Y24.465 E28.02252
G1 X80.143 Y25.124 E28.03597
G1 X80.361 Y25.744 E28.04834
G1 X80.52 Y26.502 E28.0629
G1 X80.616 Y27.215 E28.07644
G1 X80.664 Y27.936 E28.09003
G1 X80.663 Y72.06 E28.92003
G1 X80.615 Y72.778 E28.93356
G1 X80.519 Y73.494 E28.94715
G1 X80.392 Y74.138 E28.9595
G1 X80.142 Y74.875 E28.97414
G1 X79.864 Y75.534 E28.98759
G1 X79.573 Y76.123 E28.99995
G1 X79.145 Y76.759 E29.01437
G1 X78.699 Y77.33 E29.028
G1 X78.264 Y77.822 E29.04035
G1 X77.708 Y78.307 E29.05423
G1 X77.131 Y78.745 E29.06786
G1 X76.585 Y79.11 E29.08021
G1 X75.899 Y79.447 E29.09459
G1 X75.22 Y79.723 E29.10838
G1 X74.598 Y79.932 E29.12072
G1 X73.874 Y80.076 E29.1346
G1 X73.149 Y80.169 E29.14835
G1 X72.462 Y80.213 E29.1613
G1 X27.539 Y80.212 E30.00633
G1 X26.852 Y80.168 E30.01928
G1 X26.127 Y80.075 E30.03303
G1 X25.482 Y79.952 E30.04538
G1 X24.781 Y79.722 E30.05926
G1 X24.102 Y79.446 E30.07305
G1 X23.509 Y79.162 E30.08541
G1 X22.878 Y78.75 E30.09959
G1 X22.3 Y78.313 E30.11322
G1 X21.801 Y77.886 E30.12557
G1 X21.308 Y77.338 E30.13944
G1 X20.861 Y76.768 E30.15306
G1 X20.488 Y76.228 E30.16541
G1 X20.133 Y75.532 E30.18011
G1 X19.855 Y74.872 E30.19358
G1 X19.638 Y74.252 E30.20593
G1 X19.48 Y73.498 E30.22043
G1 X19.384 Y72.786 E30.23394
G1 X19.336 Y72.064 E30.24755
