;FLAVOR:Marlin
;TIME:2314
;Filament used: 0.565501m
;Layer height: 0.1
;MINX:14.2
;MINY:14.7
;MINZ:0.3
;MAXX:85.8
;MAXY:85.3
;MAXZ:1.6
;Generated with Cura_SteamEngine 5.2.1
M104 S200
M105
M109 S200
M82 ;absolute extrusion mode
G28 ;Home
G1 Z15.0 F6000 ;Move the platform down 15mm
;Prime the extruder
G92 E0
G1 F200 E3
G92 E0
G92 E0
G92 E0
G1 F1500 E-6.5
;LAYER_COUNT:14
;LAYER:0
M107
G0 F3600 X17.19 Y17.908 Z0.3
;TYPE:SKIRT
G1 F1500 E0
G1 F1800 X17.854 Y17.282 E0.01717
G1 X18.694 Y16.647 E0.03697
G1 X19.347 Y16.203 E0.05183
G1 X20.152 Y15.768 E0.06904
G1 X21.14 Y15.367 E0.0891
G1 X21.886 Y15.107 E0.10396
G1 X22.77 Y14.896 E0.12105
G1 X23.81 Y14.763 E0.14077
G1 X24.802 Y14.7 E0.15947
G1 X27.862 Y14.7 E0.21703
G1 X28.651 Y14.74 E0.23189
G1 X29.431 Y14.859 E0.24674
G1 X30.196 Y15.057 E0.2616
G1 X30.936 Y15.331 E0.27644
G1 X31.645 Y15.679 E0.2913
G1 X32.316 Y16.097 E0.30617
G1 X32.94 Y16.58 E0.32101
G1 X33.059 Y16.693 E0.3241
G1 X66.942 Y16.694 E0.96146
G1 X67.356 Y16.337 E0.97174
G1 X68.004 Y15.885 E0.9866
G1 X68.694 Y15.501 E1.00146
G1 X69.419 Y15.189 E1.0163
G1 X70.173 Y14.951 E1.03118
G1 X70.946 Y14.791 E1.04603
G1 X71.839 Y14.7 E1.06291
G1 X75.198 Y14.7 E1.1261
G1 X76.19 Y14.763 E1.14479
G1 X76.915 Y14.856 E1.15854
G1 X77.693 Y14.996 E1.17341
G1 X78.56 Y15.245 E1.19038
G1 X79.539 Y15.643 E1.21026
G1 X80.255 Y15.977 E1.22512
G1 X81.04 Y16.446 E1.24232
G1 X81.884 Y17.084 E1.26222
G1 X82.489 Y17.592 E1.27708
G1 X83.121 Y18.241 E1.29412
G1 X83.773 Y19.076 E1.31405
G1 X84.227 Y19.722 E1.3289
G1 X84.679 Y20.529 E1.3463
G1 X85.091 Y21.504 E1.36621
G1 X85.36 Y22.246 E1.38106
G1 X85.586 Y23.138 E1.39837
G1 X85.73 Y24.208 E1.41868
G1 X85.8 Y25.249 E1.4383
G1 X85.8 Y28.258 E1.4949
G1 X85.76 Y29.047 E1.50977
G1 X85.641 Y29.827 E1.52461
G1 X85.443 Y30.592 E1.53947
G1 X85.169 Y31.332 E1.55432
G1 X84.821 Y32.041 E1.56917
G1 X84.403 Y32.712 E1.58404
G1 X83.92 Y33.336 E1.59889
G1 X83.771 Y33.493 E1.60296
G1 X83.77 Y66.504 E2.22391
G1 X84.163 Y66.96 E2.23524
G1 X84.615 Y67.608 E2.2501
G1 X84.999 Y68.298 E2.26495
G1 X85.311 Y69.023 E2.2798
G1 X85.549 Y69.777 E2.29467
G1 X85.709 Y70.55 E2.30952
G1 X85.8 Y71.443 E2.3264
G1 X85.8 Y74.748 E2.38857
G1 X85.731 Y75.785 E2.40812
G1 X85.635 Y76.501 E2.42171
G1 X85.49 Y77.277 E2.43656
G1 X85.228 Y78.17 E2.45407
G1 X84.813 Y79.155 E2.47417
G1 X84.469 Y79.866 E2.48903
G1 X83.991 Y80.645 E2.50622
G1 X83.327 Y81.495 E2.52651
G1 X82.81 Y82.092 E2.54137
G1 X82.146 Y82.718 E2.55853
G1 X81.306 Y83.353 E2.57834
G1 X80.653 Y83.797 E2.5932
G1 X79.848 Y84.232 E2.61041
G1 X78.86 Y84.633 E2.63046
G1 X78.114 Y84.893 E2.64532
G1 X77.23 Y85.104 E2.66242
G1 X76.19 Y85.237 E2.68214
G1 X75.198 Y85.3 E2.70084
G1 X72.19 Y85.3 E2.75742
G1 X71.401 Y85.26 E2.77228
G1 X70.621 Y85.141 E2.78713
G1 X69.856 Y84.943 E2.80199
G1 X69.116 Y84.669 E2.81683
G1 X68.407 Y84.321 E2.83169
G1 X67.736 Y83.903 E2.84656
G1 X67.112 Y83.42 E2.8614
G1 X66.993 Y83.307 E2.86449
G1 X33.006 Y83.306 E3.5038
G1 X32.592 Y83.663 E3.51409
G1 X31.944 Y84.115 E3.52895
G1 X31.254 Y84.499 E3.5438
G1 X30.529 Y84.811 E3.55865
G1 X29.775 Y85.049 E3.57352
G1 X29.002 Y85.209 E3.58837
G1 X28.109 Y85.3 E3.60526
G1 X24.802 Y85.3 E3.66746
G1 X23.81 Y85.237 E3.68616
G1 X23.085 Y85.144 E3.69991
G1 X22.307 Y85.004 E3.71478
G1 X21.44 Y84.755 E3.73175
G1 X20.461 Y84.357 E3.75163
G1 X19.745 Y84.023 E3.76649
G1 X18.96 Y83.554 E3.78369
G1 X18.116 Y82.916 E3.80359
G1 X17.511 Y82.408 E3.81845
G1 X16.879 Y81.759 E3.83549
G1 X16.227 Y80.924 E3.85542
G1 X15.773 Y80.278 E3.87027
G1 X15.321 Y79.471 E3.88767
G1 X14.909 Y78.496 E3.90758
G1 X14.64 Y77.754 E3.92243
G1 X14.414 Y76.862 E3.93974
G1 X14.27 Y75.792 E3.96005
G1 X14.2 Y74.751 E3.97967
G1 X14.2 Y71.742 E4.03627
G1 X14.24 Y70.953 E4.05113
G1 X14.359 Y70.173 E4.06598
G1 X14.557 Y69.408 E4.08084
G1 X14.831 Y68.668 E4.09568
G1 X15.179 Y67.959 E4.11054
G1 X15.597 Y67.288 E4.12541
G1 X16.08 Y66.664 E4.14025
G1 X16.229 Y66.507 E4.14433
G1 X16.23 Y33.496 E4.76528
G1 X15.837 Y33.04 E4.7766
G1 X15.385 Y32.392 E4.79147
G1 X15.001 Y31.702 E4.80632
G1 X14.689 Y30.977 E4.82117
G1 X14.451 Y30.223 E4.83604
G1 X14.291 Y29.45 E4.85089
G1 X14.2 Y28.557 E4.86777
G1 X14.2 Y25.252 E4.92994
G1 X14.269 Y24.215 E4.94949
G1 X14.365 Y23.499 E4.96308
G1 X14.51 Y22.723 E4.97793
G1 X14.772 Y21.83 E4.99544
G1 X15.187 Y20.845 E5.01554
G1 X15.531 Y20.134 E5.0304
G1 X16.009 Y19.355 E5.04759
G1 X16.673 Y18.505 E5.06788
G1 X17.19 Y17.908 E5.08274
G0 F3600 X17.492 Y18.17
G1 F1800 X18.127 Y17.577 E5.09908
G1 X18.935 Y16.966 E5.11813
G1 X19.572 Y16.535 E5.1326
G1 X20.337 Y16.125 E5.14893
G1 X21.29 Y15.738 E5.16828
G1 X22.017 Y15.485 E5.18276
G1 X23.135 Y15.253 E5.20423
G1 X23.86 Y15.16 E5.21798
G1 X24.802 Y15.1 E5.23574
G1 X27.862 Y15.1 E5.2933
G1 X28.63 Y15.14 E5.30777
G1 X29.39 Y15.259 E5.32224
G1 X30.133 Y15.457 E5.3367
G1 X30.852 Y15.731 E5.35117
G1 X31.538 Y16.078 E5.36563
G1 X32.185 Y16.494 E5.3801
G1 X32.785 Y16.975 E5.39457
G1 X32.904 Y17.093 E5.39772
G1 X67.076 Y17.094 E6.04052
G1 X67.745 Y16.544 E6.05681
G1 X68.387 Y16.121 E6.07127
G1 X69.069 Y15.766 E6.08573
G1 X69.785 Y15.484 E6.10021
G1 X70.526 Y15.278 E6.11467
G1 X71.284 Y15.149 E6.12914
G1 X72.137 Y15.1 E6.14521
G1 X75.198 Y15.1 E6.20279
G1 X76.14 Y15.16 E6.22054
G1 X76.865 Y15.253 E6.23429
G1 X77.621 Y15.391 E6.24875
G1 X78.71 Y15.738 E6.27025
G1 X79.389 Y16.014 E6.28404
G1 X80.085 Y16.34 E6.29849
G1 X80.833 Y16.791 E6.31492
G1 X81.643 Y17.403 E6.33402
G1 X82.231 Y17.898 E6.34848
G1 X82.836 Y18.526 E6.36488
G1 X83.458 Y19.322 E6.38388
G1 X83.899 Y19.952 E6.39835
G1 X84.322 Y20.713 E6.41473
G1 X84.722 Y21.66 E6.43406
G1 X84.984 Y22.383 E6.44853
G1 X85.197 Y23.241 E6.46516
G1 X85.334 Y24.262 E6.48454
G1 X85.4 Y25.249 E6.50314
G1 X85.4 Y28.258 E6.55974
G1 X85.36 Y29.026 E6.57421
G1 X85.241 Y29.786 E6.58868
G1 X85.043 Y30.529 E6.60314
G1 X84.769 Y31.248 E6.61762
G1 X84.422 Y31.934 E6.63208
G1 X84.006 Y32.581 E6.64655
G1 X83.525 Y33.181 E6.66101
G1 X83.371 Y33.337 E6.66514
G1 X83.37 Y66.636 E7.29151
G1 X83.956 Y67.349 E7.30887
G1 X84.379 Y67.991 E7.32333
G1 X84.734 Y68.673 E7.3378
G1 X85.016 Y69.389 E7.35227
G1 X85.223 Y70.13 E7.36674
G1 X85.351 Y70.888 E7.3812
G1 X85.4 Y71.741 E7.39727
G1 X85.4 Y74.748 E7.45384
G1 X85.334 Y75.731 E7.47237
G1 X85.238 Y76.447 E7.48596
G1 X85.097 Y77.203 E7.50043
G1 X84.845 Y78.049 E7.51703
G1 X84.444 Y78.999 E7.53643
G1 X84.109 Y79.691 E7.55089
G1 X83.645 Y80.439 E7.56745
G1 X83.012 Y81.249 E7.58678
G1 X82.508 Y81.83 E7.60125
G1 X81.873 Y82.423 E7.6176
G1 X81.065 Y83.034 E7.63665
G1 X80.428 Y83.465 E7.65112
G1 X79.663 Y83.875 E7.66744
G1 X78.71 Y84.262 E7.68679
G1 X77.983 Y84.515 E7.70127
G1 X76.865 Y84.747 E7.72275
G1 X76.14 Y84.84 E7.7365
G1 X75.198 Y84.9 E7.75426
G1 X72.19 Y84.9 E7.81084
G1 X71.422 Y84.86 E7.8253
G1 X70.662 Y84.741 E7.83977
G1 X69.919 Y84.543 E7.85424
G1 X69.2 Y84.269 E7.86871
G1 X68.514 Y83.922 E7.88317
G1 X67.867 Y83.506 E7.89764
G1 X67.267 Y83.025 E7.91211
G1 X67.148 Y82.907 E7.91526
G1 X32.872 Y82.906 E8.56001
G1 X32.203 Y83.456 E8.5763
G1 X31.561 Y83.879 E8.59076
G1 X30.879 Y84.234 E8.60523
G1 X30.163 Y84.516 E8.6197
G1 X29.422 Y84.722 E8.63417
G1 X28.664 Y84.851 E8.64863
G1 X27.811 Y84.9 E8.6647
G1 X24.802 Y84.9 E8.7213
G1 X23.86 Y84.84 E8.73906
G1 X23.135 Y84.747 E8.75281
G1 X22.379 Y84.609 E8.76726
G1 X21.29 Y84.262 E8.78876
G1 X20.611 Y83.986 E8.80255
G1 X19.915 Y83.66 E8.81701
G1 X19.167 Y83.209 E8.83344
G1 X18.357 Y82.597 E8.85254
G1 X17.769 Y82.102 E8.86699
G1 X17.164 Y81.474 E8.8834
G1 X16.542 Y80.678 E8.9024
G1 X16.101 Y80.048 E8.91686
G1 X15.678 Y79.287 E8.93324
G1 X15.278 Y78.34 E8.95258
G1 X15.016 Y77.617 E8.96704
G1 X14.803 Y76.759 E8.98367
G1 X14.666 Y75.738 E9.00305
G1 X14.6 Y74.751 E9.02166
G1 X14.6 Y71.742 E9.07826
G1 X14.64 Y70.974 E9.09273
G1 X14.759 Y70.214 E9.1072
G1 X14.957 Y69.471 E9.12166
G1 X15.231 Y68.752 E9.13613
G1 X15.578 Y68.066 E9.1506
G1 X15.994 Y67.419 E9.16506
G1 X16.475 Y66.819 E9.17953
G1 X16.629 Y66.663 E9.18365
G1 X16.63 Y33.364 E9.81003
G1 X16.044 Y32.651 E9.82739
G1 X15.621 Y32.009 E9.84185
G1 X15.266 Y31.327 E9.85631
G1 X14.984 Y30.611 E9.87079
G1 X14.777 Y29.87 E9.88526
G1 X14.649 Y29.112 E9.89972
G1 X14.6 Y28.259 E9.91579
G1 X14.6 Y25.252 E9.97235
G1 X14.666 Y24.269 E9.99089
G1 X14.762 Y23.553 E10.00448
G1 X14.903 Y22.797 E10.01894
G1 X15.155 Y21.951 E10.03555
G1 X15.556 Y21.001 E10.05494
G1 X15.891 Y20.309 E10.0694
G1 X16.355 Y19.561 E10.08596
G1 X16.988 Y18.751 E10.1053
G1 X17.492 Y18.17 E10.11977
G0 F3600 X17.795 Y18.433
G1 F1800 X18.598 Y17.722 E10.13994
G1 X19.176 Y17.285 E10.15357
G1 X19.796 Y16.867 E10.16764
G1 X20.762 Y16.384 E10.18795
G1 X21.441 Y16.108 E10.20174
G1 X22.148 Y15.864 E10.21581
G1 X23.186 Y15.65 E10.23575
G1 X23.911 Y15.557 E10.2495
G1 X24.802 Y15.5 E10.26629
G1 X27.862 Y15.5 E10.32385
G1 X28.609 Y15.54 E10.33792
G1 X29.347 Y15.659 E10.35198
G1 X30.069 Y15.857 E10.36607
G1 X30.765 Y16.13 E10.38013
G1 X31.428 Y16.477 E10.39421
G1 X32.051 Y16.892 E10.40829
G1 X32.625 Y17.371 E10.42235
G1 X32.743 Y17.493 E10.42554
G1 X67.259 Y17.494 E11.07481
G1 X67.543 Y17.219 E11.08224
G1 X68.132 Y16.759 E11.0963
G1 X68.768 Y16.364 E11.11038
G1 X69.442 Y16.04 E11.12445
G1 X70.147 Y15.789 E11.13853
G1 X70.874 Y15.615 E11.15259
G1 X71.616 Y15.519 E11.16666
G1 X72.137 Y15.5 E11.17647
G1 X75.198 Y15.5 E11.23405
G1 X76.089 Y15.557 E11.25084
G1 X76.814 Y15.65 E11.26459
G1 X77.549 Y15.785 E11.27865
G1 X78.559 Y16.108 E11.2986
G1 X79.238 Y16.384 E11.31238
G1 X79.915 Y16.703 E11.32646
G1 X80.824 Y17.285 E11.34677
G1 X81.402 Y17.722 E11.3604
G1 X81.973 Y18.205 E11.37446
G1 X82.697 Y18.997 E11.39465
G1 X83.143 Y19.568 E11.40828
G1 X83.571 Y20.181 E11.42234
G1 X84.076 Y21.156 E11.443
G1 X84.354 Y21.815 E11.45645
G1 X84.607 Y22.519 E11.47052
G1 X84.841 Y23.602 E11.49136
G1 X84.937 Y24.315 E11.5049
G1 X85 Y25.249 E11.5225
G1 X85 Y28.258 E11.57911
G1 X84.96 Y29.005 E11.59318
G1 X84.841 Y29.743 E11.60724
G1 X84.643 Y30.465 E11.62132
G1 X84.37 Y31.161 E11.63538
G1 X84.023 Y31.824 E11.64946
G1 X83.608 Y32.447 E11.66354
G1 X83.129 Y33.021 E11.67761
G1 X82.971 Y33.174 E11.68174
G1 X82.97 Y66.825 E12.31474
G1 X83.281 Y67.147 E12.32316
G1 X83.741 Y67.736 E12.33722
G1 X84.136 Y68.372 E12.3513
G1 X84.46 Y69.046 E12.36537
G1 X84.711 Y69.751 E12.37944
G1 X84.885 Y70.478 E12.3935
G1 X84.981 Y71.22 E12.40758
G1 X85 Y71.741 E12.41738
G1 X85 Y74.748 E12.47395
G1 X84.938 Y75.678 E12.49148
G1 X84.842 Y76.394 E12.50507
G1 X84.703 Y77.129 E12.51914
G1 X84.354 Y78.185 E12.54006
G1 X84.076 Y78.844 E12.55351
G1 X83.748 Y79.516 E12.56758
G1 X83.143 Y80.432 E12.58823
G1 X82.697 Y81.003 E12.60186
G1 X82.205 Y81.567 E12.61594
G1 X81.402 Y82.278 E12.63611
G1 X80.824 Y82.715 E12.64974
G1 X80.204 Y83.133 E12.66381
G1 X79.238 Y83.616 E12.68412
G1 X78.559 Y83.892 E12.69791
G1 X77.852 Y84.136 E12.71198
G1 X76.814 Y84.35 E12.73192
G1 X76.089 Y84.443 E12.74567
G1 X75.198 Y84.5 E12.76246
G1 X72.19 Y84.5 E12.81904
G1 X71.443 Y84.46 E12.83311
G1 X70.705 Y84.341 E12.84718
G1 X69.983 Y84.143 E12.86126
G1 X69.287 Y83.87 E12.87532
G1 X68.624 Y83.523 E12.8894
G1 X68.001 Y83.108 E12.90348
G1 X67.427 Y82.629 E12.91754
G1 X67.309 Y82.507 E12.92073
G1 X32.689 Y82.506 E13.57196
G1 X32.405 Y82.781 E13.57939
G1 X31.816 Y83.241 E13.59345
G1 X31.18 Y83.636 E13.60753
G1 X30.506 Y83.96 E13.6216
G1 X29.801 Y84.211 E13.63568
G1 X29.074 Y84.385 E13.64974
G1 X28.332 Y84.481 E13.66381
G1 X27.811 Y84.5 E13.67362
G1 X24.802 Y84.5 E13.73022
G1 X23.911 Y84.443 E13.74701
G1 X23.186 Y84.35 E13.76076
G1 X22.451 Y84.215 E13.77482
G1 X21.441 Y83.892 E13.79477
G1 X20.762 Y83.616 E13.80855
G1 X20.085 Y83.297 E13.82263
G1 X19.176 Y82.715 E13.84294
G1 X18.598 Y82.278 E13.85657
G1 X18.027 Y81.795 E13.87063
G1 X17.303 Y81.003 E13.89082
G1 X16.857 Y80.432 E13.90445
G1 X16.429 Y79.819 E13.91851
G1 X15.924 Y78.844 E13.93917
G1 X15.646 Y78.185 E13.95262
G1 X15.393 Y77.481 E13.96669
G1 X15.159 Y76.398 E13.98753
G1 X15.063 Y75.685 E14.00107
G1 X15 Y74.751 E14.01867
G1 X15 Y71.742 E14.07528
G1 X15.04 Y70.995 E14.08935
G1 X15.159 Y70.257 E14.10341
G1 X15.357 Y69.535 E14.11749
G1 X15.63 Y68.839 E14.13155
G1 X15.977 Y68.176 E14.14563
G1 X16.392 Y67.553 E14.15971
G1 X16.871 Y66.979 E14.17378
G1 X17.029 Y66.826 E14.17791
G1 X17.03 Y33.175 E14.81091
G1 X16.719 Y32.853 E14.81933
G1 X16.259 Y32.264 E14.83339
G1 X15.864 Y31.628 E14.84747
G1 X15.54 Y30.954 E14.86154
G1 X15.289 Y30.249 E14.87561
G1 X15.115 Y29.522 E14.88967
G1 X15.019 Y28.78 E14.90375
G1 X15 Y28.259 E14.91355
G1 X15 Y25.252 E14.97012
G1 X15.062 Y24.322 E14.98765
G1 X15.158 Y23.606 E15.00124
G1 X15.297 Y22.871 E15.01531
G1 X15.646 Y21.815 E15.03623
G1 X15.924 Y21.156 E15.04968
G1 X16.252 Y20.484 E15.06375
G1 X16.857 Y19.568 E15.0844
G1 X17.303 Y18.997 E15.09803
G1 X17.795 Y18.433 E15.11211
G0 F3600 X18.097 Y18.696
G1 F1800 X18.84 Y18.041 E15.13074
G1 X19.418 Y17.604 E15.14437
G1 X20.02 Y17.199 E15.15802
G1 X20.913 Y16.755 E15.17678
G1 X21.592 Y16.479 E15.19056
G1 X22.279 Y16.243 E15.20423
G1 X23.237 Y16.047 E15.22262
G1 X23.962 Y15.954 E15.23637
G1 X24.802 Y15.9 E15.25221
G1 X27.862 Y15.9 E15.30977
G1 X28.587 Y15.94 E15.32342
G1 X29.304 Y16.059 E15.3371
G1 X30.003 Y16.257 E15.35076
G1 X30.676 Y16.53 E15.36442
G1 X31.315 Y16.875 E15.37808
G1 X31.912 Y17.289 E15.39175
G1 X32.46 Y17.765 E15.4054
G1 X32.578 Y17.893 E15.40868
G1 X67.411 Y17.894 E16.06391
G1 X67.934 Y17.412 E16.07728
G1 X68.518 Y16.98 E16.09095
G1 X69.147 Y16.616 E16.10462
G1 X69.811 Y16.323 E16.11827
G1 X70.504 Y16.105 E16.13194
G1 X71.217 Y15.964 E16.14561
G1 X72.137 Y15.9 E16.16296
G1 X75.198 Y15.9 E16.22053
G1 X76.038 Y15.954 E16.23637
G1 X76.763 Y16.047 E16.25012
G1 X77.477 Y16.179 E16.26378
G1 X78.408 Y16.479 E16.28218
G1 X79.087 Y16.755 E16.29596
G1 X79.744 Y17.065 E16.30963
G1 X80.582 Y17.604 E16.32837
G1 X81.16 Y18.041 E16.342
G1 X81.715 Y18.511 E16.35568
G1 X82.381 Y19.243 E16.3743
G1 X82.827 Y19.814 E16.38793
G1 X83.242 Y20.41 E16.40159
G1 X83.707 Y21.312 E16.42068
G1 X83.985 Y21.971 E16.43413
G1 X84.23 Y22.654 E16.44778
G1 X84.445 Y23.655 E16.46704
G1 X84.541 Y24.368 E16.48057
G1 X84.6 Y25.249 E16.49718
G1 X84.6 Y28.258 E16.55378
G1 X84.56 Y28.983 E16.56744
G1 X84.441 Y29.7 E16.58111
G1 X84.243 Y30.399 E16.59478
G1 X83.97 Y31.072 E16.60844
G1 X83.625 Y31.711 E16.6221
G1 X83.211 Y32.308 E16.63576
G1 X82.735 Y32.856 E16.64942
G1 X82.571 Y33.008 E16.65362
G1 X82.57 Y66.982 E17.29269
G1 X83.089 Y67.538 E17.307
G1 X83.52 Y68.122 E17.32065
G1 X83.884 Y68.751 E17.33432
G1 X84.177 Y69.416 E17.34799
G1 X84.395 Y70.108 E17.36164
G1 X84.536 Y70.821 E17.37531
G1 X84.6 Y71.741 E17.39266
G1 X84.6 Y74.748 E17.44922
G1 X84.541 Y75.625 E17.46576
G1 X84.445 Y76.341 E17.47935
G1 X84.309 Y77.055 E17.49302
G1 X83.985 Y78.029 E17.51233
G1 X83.707 Y78.688 E17.52578
G1 X83.388 Y79.341 E17.53945
G1 X82.827 Y80.186 E17.55853
G1 X82.381 Y80.757 E17.57216
G1 X81.903 Y81.304 E17.58582
G1 X81.16 Y81.959 E17.60446
G1 X80.582 Y82.396 E17.61809
G1 X79.98 Y82.801 E17.63173
G1 X79.087 Y83.245 E17.65049
G1 X78.408 Y83.521 E17.66428
G1 X77.721 Y83.757 E17.67795
G1 X76.763 Y83.953 E17.69634
G1 X76.038 Y84.046 E17.71009
G1 X75.198 Y84.1 E17.72592
G1 X72.19 Y84.1 E17.7825
G1 X71.465 Y84.06 E17.79616
G1 X70.748 Y83.941 E17.80983
G1 X70.049 Y83.743 E17.8235
G1 X69.376 Y83.47 E17.83716
G1 X68.737 Y83.125 E17.85082
G1 X68.14 Y82.711 E17.86449
G1 X67.592 Y82.235 E17.87814
G1 X67.474 Y82.107 E17.88142
G1 X32.537 Y82.106 E18.5386
G1 X32.014 Y82.588 E18.55198
G1 X31.43 Y83.02 E18.56564
G1 X30.801 Y83.384 E18.57931
G1 X30.137 Y83.677 E18.59297
G1 X29.444 Y83.895 E18.60663
G1 X28.731 Y84.036 E18.6203
G1 X27.811 Y84.1 E18.63765
